; generated by Slic3r 1.1.2 on 2014-07-07 at 18:48:19

; Adjusted filiment diameter to 2.94
; Changed extrusion multiplier to .9

; perimeters extrusion width = 0.50mm
; infill extrusion width = 0.70mm
; solid infill extrusion width = 0.70mm
; top infill extrusion width = 0.70mm
; support material extrusion width = 0.50mm

G21 ; set units to millimeters
M107
G28 ; home all axes
G90 ; use absolute coordinates
G92 E0
M82 ; use absolute distances for extrusion
G1 F1800.000 E-1.70000
G92 E0
G1 Z0.298 F7800.000
G1 X72.929 Y91.652 F7800.000
G1 E1.70000 F1800.000
G1 X73.532 Y91.189 E1.71380 F2700.000
G1 X75.096 Y90.286 E1.74659
G1 X76.224 Y89.835 E1.76864
G1 X90.397 Y85.047 E2.04019
G1 X92.613 Y84.540 E2.08144
G1 X94.730 Y84.355 E2.12003
G1 X96.715 Y84.446 E2.15609
G1 X98.527 Y84.756 E2.18946
G1 X99.966 Y85.153 E2.21656
G1 X114.201 Y89.995 E2.48949
G1 X114.904 Y90.286 E2.50330
G1 X116.468 Y91.189 E2.53608
G1 X117.071 Y91.652 E2.54989
G1 X118.348 Y92.929 E2.58267
G1 X118.811 Y93.532 E2.59647
G1 X119.714 Y95.096 E2.62925
G1 X120.005 Y95.799 E2.64306
G1 X120.473 Y97.543 E2.67584
G1 X120.631 Y99.200 E2.70605
G1 X120.572 Y101.703 E2.75150
G1 X120.473 Y102.457 E2.76530
G1 X120.005 Y104.201 E2.79808
G1 X119.714 Y104.904 E2.81189
G1 X118.811 Y106.468 E2.84467
G1 X118.348 Y107.071 E2.85847
G1 X117.071 Y108.348 E2.89125
G1 X116.468 Y108.811 E2.90506
G1 X114.904 Y109.714 E2.93784
G1 X113.770 Y110.167 E2.96000
G1 X98.367 Y115.292 E3.25467
G1 X96.217 Y115.607 E3.29410
G1 X94.199 Y115.632 E3.33074
G1 X92.349 Y115.426 E3.36453
G1 X90.523 Y115.003 E3.39855
G1 X75.799 Y110.005 E3.68080
G1 X75.096 Y109.714 E3.69461
G1 X73.532 Y108.811 E3.72739
G1 X72.929 Y108.348 E3.74120
G1 X71.652 Y107.071 E3.77398
G1 X71.189 Y106.468 E3.78778
G1 X70.286 Y104.904 E3.82056
G1 X69.995 Y104.201 E3.83437
G1 X69.527 Y102.457 E3.86715
G1 X69.369 Y100.800 E3.89736
G1 X69.428 Y98.297 E3.94281
G1 X69.527 Y97.543 E3.95661
G1 X69.995 Y95.799 E3.98939
G1 X70.286 Y95.096 E4.00320
G1 X71.189 Y93.532 E4.03598
G1 X71.652 Y92.929 E4.04979
G1 X72.876 Y91.705 E4.08120
G1 X73.208 Y92.016 F7800.000
G1 X73.811 Y91.553 E4.09501 F2700.000
G1 X75.272 Y90.710 E4.12562
G1 X76.371 Y90.269 E4.14712
G1 X90.512 Y85.491 E4.41806
G1 X92.666 Y84.996 E4.45818
G1 X94.722 Y84.814 E4.49564
G1 X96.648 Y84.900 E4.53065
G1 X98.409 Y85.199 E4.56307
G1 X99.818 Y85.588 E4.58960
G1 X114.026 Y90.419 E4.86199
G1 X114.728 Y90.710 E4.87579
G1 X116.189 Y91.553 E4.90640
G1 X116.792 Y92.016 E4.92021
G1 X117.984 Y93.208 E4.95081
G1 X118.447 Y93.811 E4.96462
G1 X119.290 Y95.272 E4.99522
G1 X119.581 Y95.974 E5.00903
G1 X120.018 Y97.603 E5.03963
G1 X120.172 Y99.200 E5.06876
G1 X120.117 Y101.643 E5.11312
G1 X120.018 Y102.397 E5.12692
G1 X119.581 Y104.026 E5.15753
G1 X119.290 Y104.728 E5.17133
G1 X118.447 Y106.189 E5.20194
G1 X117.984 Y106.792 E5.21574
G1 X116.792 Y107.984 E5.24635
G1 X116.189 Y108.447 E5.26015
G1 X114.728 Y109.290 E5.29076
G1 X113.623 Y109.733 E5.31237
G1 X98.287 Y114.840 E5.60578
G1 X96.199 Y115.149 E5.64409
G1 X94.239 Y115.175 E5.67967
G1 X92.440 Y114.976 E5.71252
G1 X90.668 Y114.568 E5.74553
G1 X75.974 Y109.581 E6.02720
G1 X75.272 Y109.290 E6.04100
G1 X73.811 Y108.447 E6.07161
G1 X73.208 Y107.984 E6.08541
G1 X72.016 Y106.792 E6.11602
G1 X71.553 Y106.189 E6.12982
G1 X70.710 Y104.728 E6.16043
G1 X70.419 Y104.026 E6.17424
G1 X69.982 Y102.397 E6.20484
G1 X69.828 Y100.800 E6.23397
G1 X69.883 Y98.357 E6.27832
G1 X69.982 Y97.603 E6.29213
G1 X70.419 Y95.974 E6.32273
G1 X70.710 Y95.272 E6.33654
G1 X71.553 Y93.811 E6.36715
G1 X72.016 Y93.208 E6.38095
G1 X73.155 Y92.069 E6.41019
G1 F1800.000 E4.71019
G92 E0
G1 X77.051 Y101.376 F7800.000
G1 E1.70000 F1800.000
G1 X76.969 Y100.755 E1.71136 F1200.000
G1 X76.969 Y99.245 E1.73878
G1 X77.051 Y98.624 E1.75014
G1 X77.273 Y98.088 E1.76068
G1 X77.627 Y97.627 E1.77123
G1 X78.088 Y97.273 E1.78177
G1 X78.624 Y97.051 E1.79231
G1 X79.246 Y96.969 E1.80370
G1 X86.208 Y96.956 E1.93006
G1 X86.208 Y103.044 E2.04058
G1 X79.246 Y103.031 E2.16695
G1 X78.624 Y102.949 E2.17833
G1 X78.088 Y102.727 E2.18888
G1 X77.627 Y102.373 E2.19942
G1 X77.273 Y101.912 E2.20996
G1 X77.080 Y101.445 E2.21914
G1 X76.604 Y101.496 F7800.000
G1 X76.510 Y100.785 E2.23215 F1200.000
G1 X76.510 Y99.215 E2.26066
G1 X76.604 Y98.504 E2.27366
G1 X76.872 Y97.856 E2.28640
G1 X77.300 Y97.300 E2.29913
G1 X77.856 Y96.872 E2.31187
G1 X78.504 Y96.604 E2.32460
G1 X79.215 Y96.510 E2.33761
G1 X84.566 Y96.489 E2.43475
G1 X86.667 Y96.499 E2.47287
G1 X86.667 Y103.501 E2.59997
G1 X84.566 Y103.511 E2.63809
G1 X79.215 Y103.490 E2.73523
G1 X78.504 Y103.396 E2.74824
G1 X77.856 Y103.128 E2.76098
G1 X77.300 Y102.700 E2.77371
G1 X76.872 Y102.144 E2.78645
G1 X76.633 Y101.565 E2.79782
G1 X76.973 Y101.158 F7800.000
G1 X77.756 Y102.028 F7800.000
G1 X77.972 Y102.244 E2.80580 F3600.000
G1 X79.436 Y102.719 E2.84585
G1 X77.282 Y100.565 E2.92514
G1 X77.282 Y99.575 E2.95089
G1 X80.427 Y102.720 E3.06667
G1 X81.418 Y102.722 E3.09247
G1 X77.369 Y98.673 E3.24153
G1 X77.713 Y98.028 E3.26057
G1 X82.409 Y102.724 E3.43345
G1 X83.400 Y102.726 E3.45925
G1 X78.231 Y97.557 E3.64954
G1 X78.983 Y97.319 E3.67006
G1 X84.392 Y102.728 E3.86918
G1 X85.383 Y102.730 E3.89498
G1 X79.932 Y97.279 E4.09564
G1 X80.917 Y97.275 E4.12129
G1 X85.895 Y102.253 E4.30454
G1 X85.895 Y101.264 E4.33029
G1 X81.903 Y97.271 E4.47727
G1 X82.888 Y97.267 E4.50292
G1 X85.895 Y100.275 E4.61362
G1 X85.895 Y99.285 E4.63937
G1 X83.873 Y97.264 E4.71380
G1 X84.861 Y97.262 E4.73951
G1 X85.895 Y98.296 E4.77758
G1 X85.895 Y97.307 E4.80333
G1 X85.855 Y97.267 E4.80480
G1 F1800.000 E3.10480
G92 E0
G1 X103.792 Y103.044 F7800.000
G1 E1.70000 F1800.000
G1 X103.792 Y96.956 E1.81052 F1200.000
G1 X110.754 Y96.969 E1.93688
G1 X111.376 Y97.051 E1.94827
G1 X111.912 Y97.273 E1.95881
G1 X112.373 Y97.627 E1.96935
G1 X112.727 Y98.088 E1.97990
G1 X112.949 Y98.624 E1.99044
G1 X113.031 Y99.245 E2.00180
G1 X113.031 Y100.755 E2.02922
G1 X112.949 Y101.376 E2.04058
G1 X112.727 Y101.912 E2.05112
G1 X112.373 Y102.373 E2.06167
G1 X111.912 Y102.727 E2.07221
G1 X111.376 Y102.949 E2.08275
G1 X110.754 Y103.031 E2.09414
G1 X103.867 Y103.045 E2.21914
G1 X103.333 Y103.501 F7800.000
G1 X103.333 Y96.499 E2.34624 F1200.000
G1 X105.434 Y96.489 E2.38436
G1 X110.785 Y96.510 E2.48150
G1 X111.496 Y96.604 E2.49451
G1 X112.144 Y96.872 E2.50725
G1 X112.700 Y97.300 E2.51998
G1 X113.128 Y97.856 E2.53272
G1 X113.396 Y98.504 E2.54545
G1 X113.490 Y99.215 E2.55846
G1 X113.490 Y100.785 E2.58697
G1 X113.396 Y101.496 E2.59997
G1 X113.128 Y102.144 E2.61271
G1 X112.700 Y102.700 E2.62544
G1 X112.144 Y103.128 E2.63818
G1 X111.496 Y103.396 E2.65091
G1 X110.785 Y103.490 E2.66392
G1 X105.434 Y103.511 E2.76106
G1 X103.408 Y103.501 E2.79782
G1 X103.584 Y103.068 F7800.000
G1 X104.105 Y102.693 F7800.000
G1 X104.145 Y102.733 E2.79930 F3600.000
G1 X105.139 Y102.738 E2.82517
G1 X104.105 Y101.704 E2.86323
G1 X104.105 Y100.715 E2.88898
G1 X106.127 Y102.736 E2.96341
G1 X107.112 Y102.733 E2.98906
G1 X104.105 Y99.725 E3.09976
G1 X104.105 Y98.736 E3.12551
G1 X108.097 Y102.729 E3.27249
G1 X109.083 Y102.725 E3.29814
G1 X104.105 Y97.747 E3.48139
G1 X104.612 Y97.265 E3.49960
G1 X110.068 Y102.721 E3.70047
G1 X111.017 Y102.681 E3.72519
G1 X105.598 Y97.261 E3.92470
G1 X106.591 Y97.265 E3.95055
G1 X111.769 Y102.443 E4.14115
G1 X112.287 Y101.972 E4.15938
G1 X107.584 Y97.269 E4.33250
G1 X108.577 Y97.273 E4.35836
G1 X112.631 Y101.327 E4.50758
G1 X112.718 Y100.425 E4.53117
G1 X109.571 Y97.277 E4.64704
G1 X110.564 Y97.281 E4.67290
G1 X112.718 Y99.435 E4.75220
G1 X112.244 Y97.972 E4.79223
G1 X112.028 Y97.756 E4.80021
G1 F1800.000 E3.10021
G92 E0
G1 X101.196 Y93.746 F7800.000
G1 E1.70000 F1800.000
G1 X100.808 Y94.520 E1.71713 F1800.000
G1 F1800.000 E0.01713
G92 E0
G1 X100.908 Y105.480 F7800.000
G1 E1.70000 F1800.000
G1 X100.085 Y107.122 E1.73634 F1800.000
G1 X99.789 Y105.480 E1.76934
G1 X98.531 Y107.990 E1.82487
G1 X97.168 Y108.479 E1.85353
G1 X99.595 Y103.635 E1.96071
G1 X99.595 Y101.403 E2.00485
G1 X95.941 Y108.695 E2.16618
G1 X94.799 Y108.741 E2.18878
G1 X99.595 Y99.171 E2.40050
G1 X99.595 Y96.940 E2.44465
G1 X93.728 Y108.647 E2.70368
G1 X92.712 Y108.441 E2.72417
G1 X100.387 Y93.129 E3.06294
G1 X99.561 Y92.546 E3.08295
G1 X96.224 Y99.203 E3.23025
G1 X95.411 Y98.594 E3.25035
G1 X98.676 Y92.080 E3.39448
G1 X97.745 Y91.705 E3.41432
G1 X89.991 Y107.175 E3.75660
G1 X90.845 Y107.702 E3.77646
G1 X94.120 Y101.169 E3.92102
G1 X95.089 Y101.467 E3.94108
G1 X91.754 Y108.121 E4.08831
G1 X89.191 Y106.540 F7800.000
G1 X89.722 Y105.480 E4.11175 F1800.000
G1 X88.604 Y105.480 E4.13388
G1 X88.390 Y105.906 E4.14330
G1 F1800.000 E2.44330
G92 E0
G1 X90.405 Y104.119 F7800.000
G1 E1.70000 F1800.000
G1 X96.757 Y91.443 E1.98044 F1800.000
G1 X95.715 Y91.291 E2.00128
G1 X90.405 Y101.887 E2.23571
G1 X90.405 Y99.655 E2.27985
G1 X94.606 Y91.271 E2.46534
G1 X93.418 Y91.411 E2.48901
G1 X90.405 Y97.423 E2.62204
G1 X90.405 Y95.191 E2.66618
G1 X92.132 Y91.744 E2.74246
G1 X90.687 Y92.395 E2.77382
G1 X89.622 Y94.520 E2.82083
G1 X88.932 Y93.665 E2.84256
G1 X88.504 Y94.520 E2.86148
M106 S255
G1 F1800.000 E1.16148
G92 E0
G1 Z0.597 F7800.000
G1 X76.614 Y101.493 F7800.000
G1 E1.70000 F1800.000
G1 X76.516 Y100.751 E1.71481 F2104.977
G1 X76.516 Y99.249 E1.74451
G1 X76.614 Y98.507 E1.75932
G1 X76.881 Y97.861 E1.77314
G1 X77.307 Y97.307 E1.78697
G1 X77.861 Y96.881 E1.80080
G1 X78.507 Y96.614 E1.81462
G1 X79.250 Y96.516 E1.82945
G1 X86.657 Y96.508 E1.97595
G1 X86.657 Y103.492 E2.11409
G1 X79.250 Y103.484 E2.26058
G1 X78.507 Y103.386 E2.27541
G1 X77.861 Y103.119 E2.28924
G1 X77.307 Y102.693 E2.30307
G1 X76.881 Y102.139 E2.31689
G1 X76.642 Y101.562 E2.32924
G1 X76.126 Y101.624 F7800.000
M106 S255
G1 X76.016 Y100.784 E2.35129 F2400.000
G1 X76.016 Y99.216 E2.39208
G1 X76.126 Y98.376 E2.41414
G1 X76.444 Y97.609 E2.43576
G1 X76.950 Y96.950 E2.45738
G1 X77.609 Y96.444 E2.47901
G1 X78.376 Y96.126 E2.50063
G1 X79.217 Y96.016 E2.52269
G1 X87.157 Y96.009 E2.72937
G1 X87.157 Y103.991 E2.93713
G1 X79.217 Y103.984 E3.14381
G1 X78.376 Y103.874 E3.16587
G1 X77.609 Y103.556 E3.18749
G1 X76.950 Y103.050 E3.20912
G1 X76.444 Y102.391 E3.23074
G1 X76.155 Y101.693 E3.25041
M106 S255
G1 X76.495 Y101.286 F7800.000
G1 F1800.000 E1.55041
G92 E0
G1 X76.900 Y99.226 F7800.000
G1 E1.70000 F1800.000
G1 X79.226 Y96.900 E1.78560 F6314.930
G1 X80.180 Y96.891 E1.81044
G1 X76.894 Y100.177 E1.93139
G1 X76.940 Y101.076 E1.95482
G1 X81.127 Y96.888 E2.10897
G1 X82.075 Y96.885 E2.13363
G1 X77.153 Y101.807 E2.31482
G1 X77.543 Y102.362 E2.33248
G1 X83.022 Y96.883 E2.53419
G1 X83.970 Y96.880 E2.55886
G1 X78.058 Y102.791 E2.77648
G1 X78.757 Y103.038 E2.79576
G1 X84.913 Y96.882 E3.02238
G1 X85.855 Y96.884 E3.04691
G1 X79.632 Y103.107 E3.27600
G1 X80.574 Y103.110 E3.30053
G1 X86.279 Y97.406 E3.51052
G1 X86.279 Y98.351 E3.53512
G1 X81.516 Y103.113 E3.71043
G1 X82.458 Y103.116 E3.73495
G1 X86.279 Y99.295 E3.87559
G1 X86.279 Y100.240 E3.90018
G1 X83.400 Y103.118 E4.00614
G1 X84.344 Y103.119 E4.03071
G1 X86.279 Y101.185 E4.10191
G1 X86.279 Y102.130 E4.12651
G1 X85.291 Y103.117 E4.16285
G1 X86.239 Y103.115 E4.18750
G1 X86.279 Y103.075 E4.18898
G1 F1800.000 E2.48898
G92 E0
G1 X77.699 Y97.482 F7800.000
G1 E1.70000 F1800.000
G1 X77.482 Y97.699 E1.70798 F6314.930
G1 F1800.000 E0.00798
G92 E0
G1 X103.343 Y103.492 F7800.000
G1 E1.70000 F1800.000
G1 X103.343 Y96.508 E1.83814 F2104.977
G1 X105.990 Y96.502 E1.89048
G1 X110.750 Y96.516 E1.98463
G1 X111.493 Y96.614 E1.99946
G1 X112.139 Y96.881 E2.01329
G1 X112.693 Y97.307 E2.02712
G1 X113.119 Y97.861 E2.04094
G1 X113.386 Y98.507 E2.05477
G1 X113.484 Y99.249 E2.06958
G1 X113.484 Y100.751 E2.09928
G1 X113.386 Y101.493 E2.11409
G1 X113.119 Y102.139 E2.12791
G1 X112.693 Y102.693 E2.14174
G1 X112.139 Y103.119 E2.15557
G1 X111.493 Y103.386 E2.16939
G1 X110.750 Y103.484 E2.18422
G1 X103.418 Y103.492 E2.32924
G1 X102.843 Y103.991 F7800.000
M106 S255
G1 X102.843 Y96.009 E2.53699 F2400.000
G1 X105.990 Y96.002 E2.61889
G1 X110.783 Y96.016 E2.74367
G1 X111.624 Y96.126 E2.76574
G1 X112.391 Y96.444 E2.78736
G1 X113.050 Y96.950 E2.80898
G1 X113.556 Y97.609 E2.83060
G1 X113.874 Y98.376 E2.85223
G1 X113.984 Y99.216 E2.87428
G1 X113.984 Y100.784 E2.91508
G1 X113.874 Y101.624 E2.93713
G1 X113.556 Y102.391 E2.95875
G1 X113.050 Y103.050 E2.98037
G1 X112.391 Y103.556 E3.00200
G1 X111.624 Y103.874 E3.02362
G1 X110.783 Y103.984 E3.04568
G1 X102.918 Y103.991 E3.25041
M106 S255
G1 X103.094 Y103.558 F7800.000
G1 F1800.000 E1.55041
G92 E0
G1 X103.761 Y96.885 F7800.000
G1 E1.70000 F1800.000
G1 X103.721 Y96.925 E1.70147 F6314.930
G1 X103.721 Y97.870 E1.72607
G1 X104.709 Y96.883 E1.76241
G1 X105.656 Y96.881 E1.78707
G1 X103.721 Y98.815 E1.85827
G1 X103.721 Y99.760 E1.88287
G1 X106.600 Y96.882 E1.98882
G1 X107.542 Y96.884 E2.01335
G1 X103.721 Y100.705 E2.15398
G1 X103.721 Y101.649 E2.17857
G1 X108.484 Y96.887 E2.35389
G1 X109.426 Y96.890 E2.37841
G1 X103.721 Y102.594 E2.58841
G1 X104.147 Y103.113 E2.60588
G1 X110.368 Y96.893 E2.83487
G1 X111.243 Y96.962 E2.85773
G1 X105.093 Y103.112 E3.08413
G1 X106.039 Y103.111 E3.10875
G1 X111.942 Y97.209 E3.32604
G1 X112.457 Y97.638 E3.34350
G1 X106.985 Y103.110 E3.54495
G1 X107.931 Y103.109 E3.56957
G1 X112.847 Y98.193 E3.75056
G1 X113.060 Y98.924 E3.77040
G1 X108.876 Y103.108 E3.92441
G1 X109.822 Y103.107 E3.94903
G1 X113.106 Y99.823 E4.06992
G1 X113.100 Y100.774 E4.09468
G1 X110.774 Y103.100 E4.18028
G1 X112.301 Y102.518 F7800.000
G1 X112.518 Y102.301 E4.18826 F6314.930
G1 F1800.000 E2.48826
G92 E0
G1 Z0.641 F7800.000
G1 X100.687 Y106.000 F7800.000
G1 E1.70000 F1800.000
G1 X89.347 Y106.000 E1.95782 F3157.465
G1 F1800.000 E0.25782
G92 E0
G1 X94.721 Y98.536 F7800.000
G1 E1.70000 F1800.000
G1 X95.094 Y98.513 E1.70849 F3157.465
G1 X95.460 Y98.583 E1.71698
G1 X95.798 Y98.742 E1.72548
G1 X96.086 Y98.980 E1.73397
G1 X96.306 Y99.282 E1.74246
G1 X96.443 Y99.629 E1.75095
G1 X96.490 Y100.000 E1.75945
G1 X96.443 Y100.371 E1.76794
G1 X96.306 Y100.718 E1.77643
G1 X96.086 Y101.020 E1.78492
G1 X95.798 Y101.258 E1.79341
G1 X95.460 Y101.417 E1.80191
G1 X95.094 Y101.487 E1.81040
G1 X94.721 Y101.464 E1.81889
G1 X94.366 Y101.348 E1.82738
G1 X94.050 Y101.148 E1.83588
G1 X93.795 Y100.876 E1.84437
G1 X93.615 Y100.549 E1.85286
G1 X93.522 Y100.187 E1.86135
G1 X93.522 Y99.813 E1.86985
G1 X93.615 Y99.451 E1.87834
G1 X93.795 Y99.124 E1.88683
G1 X94.050 Y98.852 E1.89532
G1 X94.366 Y98.652 E1.90381
G1 X94.721 Y98.536 E1.91231
G1 F1800.000 E0.21231
G92 E0
G1 X96.974 Y100.000 F7800.000
G1 E1.70000 F1800.000
G1 X99.095 Y100.000 E1.74824 F3157.465
G1 X99.095 Y103.000 E1.81645
G1 X90.905 Y103.000 E2.00268
G1 X93.042 Y100.000 E2.08643
G1 X90.905 Y100.000 E2.13502
G1 X90.905 Y97.000 E2.20323
G1 X99.095 Y97.000 E2.38946
G1 F1800.000 E0.68946
G92 E0
G1 X100.687 Y94.000 F7800.000
G1 E1.70000 F1800.000
G1 X89.347 Y94.000 E1.95782 F3157.465
G1 X96.008 Y91.329 F7800.000
G1 X95.000 Y91.267 E1.98078 F3157.465
G1 X93.992 Y91.329 E2.00374
G1 X92.844 Y91.538 E2.03027
G1 X91.865 Y91.850 E2.05363
G1 X90.802 Y92.348 E2.08032
G1 X89.950 Y92.875 E2.10311
G1 X88.308 Y94.185 E2.15085
G1 X88.418 Y94.500 E2.15845
G1 X90.425 Y94.500 E2.20407
G1 X90.425 Y105.500 E2.45417
G1 X88.418 Y105.500 E2.49979
G1 X88.308 Y105.816 E2.50738
G1 X90.014 Y107.167 E2.55686
G1 X90.857 Y107.686 E2.57937
G1 X91.865 Y108.150 E2.60459
G1 X92.844 Y108.462 E2.62797
G1 X93.992 Y108.671 E2.65449
G1 X95.000 Y108.733 E2.67745
G1 X96.008 Y108.671 E2.70041
G1 X97.156 Y108.462 E2.72694
G1 X98.135 Y108.150 E2.75030
G1 X99.198 Y107.652 E2.77699
G1 X100.050 Y107.125 E2.79978
G1 X100.778 Y106.539 E2.82102
G1 X101.691 Y105.863 E2.84685
G1 X101.571 Y105.500 E2.85555
G1 X99.575 Y105.500 E2.90093
G1 X99.575 Y94.500 E3.15103
G1 X101.571 Y94.500 E3.19641
G1 X101.691 Y94.137 E3.20511
G1 X100.633 Y93.353 E3.23505
G1 X99.986 Y92.833 E3.25392
G1 X99.143 Y92.314 E3.27642
G1 X98.135 Y91.850 E3.30165
G1 X97.156 Y91.538 E3.32503
G1 X96.008 Y91.329 E3.35155
G1 F1800.000 E1.65155
G92 E0
G1 Z0.895 F7800.000
G1 X78.429 Y96.321 F7800.000
G1 E1.70000 F1800.000
G1 X79.250 Y96.213 E1.71639 F2242.060
G1 X86.970 Y96.198 E1.86908
G1 X86.970 Y103.802 E2.01951
G1 X79.250 Y103.787 E2.17220
G1 X78.429 Y103.679 E2.18859
