; generated by Slic3r 1.1.2 on 2014-07-08 at 17:49:09

; Adjusted filiment diameter to 2.94
; Changed extrusion multiplier to .9

; perimeters extrusion width = 0.50mm
; infill extrusion width = 0.70mm
; solid infill extrusion width = 0.70mm
; top infill extrusion width = 0.70mm
; support material extrusion width = 0.50mm

G21 ; set units to millimeters
M107
G28 ; home all axes
G90 ; use absolute coordinates
G92 E0
M82 ; use absolute distances for extrusion
G1 F1800.000 E-1.70000
G92 E0
G1 Z0.298 F7800.000
G1 X72.944 Y76.726 F7800.000
G1 E1.70000 F1800.000
G1 X73.547 Y76.263 E1.71381 F2700.000
G1 X75.111 Y75.360 E1.74659
G1 X76.239 Y74.909 E1.76864
G1 X90.477 Y70.103 E2.04141
G1 X92.690 Y69.605 E2.08259
G1 X94.805 Y69.428 E2.12112
G1 X96.788 Y69.527 E2.15715
G1 X98.597 Y69.843 E2.19049
G1 X100.010 Y70.237 E2.21711
G1 X114.216 Y75.069 E2.48950
G1 X114.919 Y75.360 E2.50330
G1 X116.483 Y76.263 E2.53609
G1 X117.086 Y76.726 E2.54989
G1 X118.363 Y78.003 E2.58267
G1 X118.826 Y78.607 E2.59647
G1 X119.729 Y80.171 E2.62926
G1 X120.020 Y80.873 E2.64306
G1 X120.487 Y82.618 E2.67584
G1 X120.646 Y84.275 E2.70605
G1 X120.557 Y116.628 E3.29334
G1 X120.458 Y117.382 E3.30714
G1 X119.990 Y119.127 E3.33992
G1 X119.699 Y119.829 E3.35373
G1 X118.796 Y121.393 E3.38651
G1 X118.333 Y121.997 E3.40031
G1 X117.056 Y123.274 E3.43309
G1 X116.453 Y123.737 E3.44690
G1 X114.889 Y124.640 E3.47968
G1 X113.755 Y125.092 E3.50184
G1 X98.443 Y130.195 E3.79482
G1 X96.261 Y130.529 E3.83488
G1 X94.242 Y130.562 E3.87155
G1 X92.389 Y130.362 E3.90537
G1 X90.561 Y129.945 E3.93940
G1 X75.784 Y124.931 E4.22266
G1 X75.081 Y124.640 E4.23647
G1 X73.517 Y123.737 E4.26925
G1 X72.914 Y123.274 E4.28305
G1 X71.637 Y121.997 E4.31583
G1 X71.174 Y121.393 E4.32964
G1 X70.271 Y119.829 E4.36242
G1 X69.980 Y119.127 E4.37622
G1 X69.513 Y117.382 E4.40900
G1 X69.354 Y115.725 E4.43922
G1 X69.443 Y83.372 E5.02650
G1 X69.542 Y82.618 E5.04031
G1 X70.010 Y80.873 E5.07309
G1 X70.301 Y80.171 E5.08689
G1 X71.204 Y78.607 E5.11967
G1 X71.667 Y78.003 E5.13348
G1 X72.891 Y76.779 E5.16490
G1 X73.223 Y77.090 F7800.000
G1 X73.826 Y76.627 E5.17870 F2700.000
G1 X75.287 Y75.784 E5.20931
G1 X76.387 Y75.344 E5.23082
G1 X90.590 Y70.548 E5.50294
G1 X92.742 Y70.061 E5.54299
G1 X94.795 Y69.887 E5.58040
G1 X96.720 Y69.980 E5.61537
G1 X98.478 Y70.286 E5.64776
G1 X99.862 Y70.672 E5.67385
G1 X114.041 Y75.493 E5.94569
G1 X114.743 Y75.784 E5.95949
G1 X116.203 Y76.627 E5.99010
G1 X116.807 Y77.090 E6.00390
G1 X117.999 Y78.283 E6.03451
G1 X118.462 Y78.886 E6.04831
G1 X119.305 Y80.346 E6.07892
G1 X119.596 Y81.049 E6.09273
G1 X120.033 Y82.678 E6.12333
G1 X120.187 Y84.275 E6.15246
G1 X120.102 Y116.568 E6.73865
G1 X120.003 Y117.322 E6.75246
G1 X119.566 Y118.951 E6.78306
G1 X119.275 Y119.654 E6.79687
G1 X118.432 Y121.114 E6.82748
G1 X117.969 Y121.717 E6.84128
G1 X116.777 Y122.910 E6.87189
G1 X116.174 Y123.373 E6.88569
G1 X114.713 Y124.216 E6.91630
G1 X113.608 Y124.658 E6.93790
G1 X98.360 Y129.744 E7.22968
G1 X96.241 Y130.071 E7.26860
G1 X94.280 Y130.104 E7.30421
G1 X92.479 Y129.912 E7.33708
G1 X90.705 Y129.510 E7.37010
G1 X75.959 Y124.507 E7.65275
G1 X75.257 Y124.216 E7.66655
G1 X73.797 Y123.373 E7.69716
G1 X73.193 Y122.910 E7.71096
G1 X72.001 Y121.717 E7.74157
G1 X71.538 Y121.114 E7.75537
G1 X70.695 Y119.654 E7.78598
G1 X70.404 Y118.951 E7.79979
G1 X69.967 Y117.322 E7.83039
G1 X69.813 Y115.725 E7.85952
G1 X69.898 Y83.432 E8.44571
G1 X69.997 Y82.678 E8.45952
G1 X70.434 Y81.049 E8.49012
G1 X70.725 Y80.346 E8.50393
G1 X71.568 Y78.886 E8.53454
G1 X72.031 Y78.283 E8.54834
G1 X73.170 Y77.144 E8.57759
G1 F1800.000 E6.87759
G92 E0
G1 X86.223 Y82.030 F7800.000
G1 E1.70000 F1800.000
G1 X86.223 Y88.119 E1.81052 F1200.000
G1 X79.261 Y88.105 E1.93688
G1 X78.639 Y88.024 E1.94827
G1 X78.103 Y87.801 E1.95881
G1 X77.642 Y87.448 E1.96935
G1 X77.288 Y86.987 E1.97990
G1 X77.066 Y86.450 E1.99044
G1 X76.984 Y85.830 E2.00180
G1 X76.984 Y84.319 E2.02922
G1 X77.066 Y83.699 E2.04058
G1 X77.288 Y83.162 E2.05112
G1 X77.642 Y82.701 E2.06167
G1 X78.103 Y82.348 E2.07221
G1 X78.639 Y82.126 E2.08275
G1 X79.261 Y82.044 E2.09414
G1 X86.148 Y82.030 E2.21914
G1 X86.681 Y81.574 F7800.000
G1 X86.681 Y88.576 E2.34624 F1200.000
G1 X84.581 Y88.585 E2.38436
G1 X79.230 Y88.564 E2.48150
G1 X78.519 Y88.471 E2.49451
G1 X77.871 Y88.202 E2.50725
G1 X77.315 Y87.775 E2.51998
G1 X76.887 Y87.218 E2.53272
G1 X76.619 Y86.570 E2.54545
G1 X76.525 Y85.860 E2.55846
G1 X76.525 Y84.289 E2.58697
G1 X76.619 Y83.579 E2.59997
G1 X76.887 Y82.931 E2.61271
G1 X77.315 Y82.374 E2.62544
G1 X77.871 Y81.947 E2.63818
G1 X78.519 Y81.679 E2.65091
G1 X79.230 Y81.585 E2.66392
G1 X84.581 Y81.564 E2.76106
G1 X86.606 Y81.573 E2.79782
G1 X86.431 Y82.006 F7800.000
G1 X85.870 Y82.341 F7800.000
G1 X85.910 Y82.382 E2.79930 F3600.000
G1 X85.910 Y83.371 E2.82505
G1 X84.876 Y82.337 E2.86311
G1 X83.888 Y82.338 E2.88883
G1 X85.910 Y84.360 E2.96325
G1 X85.910 Y85.349 E2.98900
G1 X82.903 Y82.342 E3.09971
G1 X81.917 Y82.346 E3.12536
G1 X85.910 Y86.338 E3.27233
G1 X85.910 Y87.328 E3.29808
G1 X80.932 Y82.350 E3.48133
G1 X79.947 Y82.354 E3.50698
G1 X85.398 Y87.805 E3.70765
G1 X84.407 Y87.803 E3.73345
G1 X78.998 Y82.394 E3.93257
G1 X78.246 Y82.632 E3.95308
G1 X83.415 Y87.801 E4.14337
G1 X82.424 Y87.799 E4.16917
G1 X77.728 Y83.103 E4.34206
G1 X77.384 Y83.748 E4.36109
G1 X81.433 Y87.797 E4.51015
G1 X80.442 Y87.795 E4.53595
G1 X77.297 Y84.650 E4.65173
G1 X77.297 Y85.639 E4.67748
G1 X79.451 Y87.793 E4.75678
G1 X77.987 Y87.319 E4.79683
G1 X77.771 Y87.102 E4.80480
G1 F1800.000 E3.10480
G92 E0
G1 X112.388 Y87.448 F7800.000
G1 E1.70000 F1800.000
G1 X111.927 Y87.801 E1.71054 F1200.000
G1 X111.391 Y88.024 E1.72108
G1 X110.769 Y88.105 E1.73247
G1 X103.807 Y88.119 E1.85884
G1 X103.807 Y82.030 E1.96935
G1 X110.769 Y82.044 E2.09572
G1 X111.391 Y82.126 E2.10711
G1 X111.927 Y82.348 E2.11765
G1 X112.388 Y82.701 E2.12819
G1 X112.742 Y83.162 E2.13873
G1 X112.964 Y83.699 E2.14928
G1 X113.046 Y84.319 E2.16064
G1 X113.046 Y85.830 E2.18806
G1 X112.964 Y86.450 E2.19942
G1 X112.742 Y86.987 E2.20996
G1 X112.434 Y87.388 E2.21914
G1 X112.715 Y87.775 F7800.000
G1 X112.159 Y88.202 E2.23188 F1200.000
G1 X111.511 Y88.471 E2.24461
G1 X110.800 Y88.564 E2.25762
G1 X105.448 Y88.585 E2.35476
G1 X103.348 Y88.576 E2.39288
G1 X103.348 Y81.574 E2.51998
G1 X105.448 Y81.564 E2.55810
G1 X110.800 Y81.585 E2.65524
G1 X111.511 Y81.679 E2.66825
G1 X112.159 Y81.947 E2.68099
G1 X112.715 Y82.374 E2.69372
G1 X113.142 Y82.931 E2.70646
G1 X113.411 Y83.579 E2.71919
G1 X113.504 Y84.289 E2.73220
G1 X113.504 Y85.860 E2.76071
G1 X113.411 Y86.570 E2.77371
G1 X113.142 Y87.218 E2.78645
G1 X112.761 Y87.716 E2.79782
G1 X112.238 Y87.625 F7800.000
G1 F1800.000 E1.09782
G92 E0
G1 X112.042 Y82.830 F7800.000
G1 E1.70000 F1800.000
G1 X112.259 Y83.047 E1.70798 F3600.000
G1 X112.733 Y84.510 E1.74801
G1 X110.579 Y82.356 E1.82732
G1 X109.585 Y82.352 E1.85317
G1 X112.733 Y85.499 E1.96904
G1 X112.646 Y86.401 E1.99263
G1 X108.592 Y82.348 E2.14185
G1 X107.599 Y82.344 E2.16771
G1 X112.302 Y87.047 E2.34083
G1 X111.784 Y87.518 E2.35906
G1 X106.606 Y82.340 E2.54966
G1 X105.613 Y82.336 E2.57551
G1 X111.032 Y87.755 E2.77502
G1 X110.083 Y87.796 E2.79975
G1 X104.627 Y82.339 E3.00061
G1 X104.120 Y82.822 E3.01882
G1 X109.098 Y87.799 E3.20207
G1 X108.112 Y87.803 E3.22772
G1 X104.120 Y83.811 E3.37470
G1 X104.120 Y84.800 E3.40045
G1 X107.127 Y87.807 E3.51115
G1 X106.142 Y87.811 E3.53680
G1 X104.120 Y85.789 E3.61123
G1 X104.120 Y86.779 E3.63698
G1 X105.154 Y87.812 E3.67504
G1 X104.160 Y87.808 E3.70092
G1 X104.120 Y87.768 E3.70239
G1 F1800.000 E2.00239
G92 E0
G1 X86.193 Y117.970 F7800.000
G1 E1.70000 F1800.000
G1 X79.231 Y117.956 E1.82637 F1200.000
G1 X78.609 Y117.874 E1.83775
G1 X78.073 Y117.652 E1.84830
G1 X77.612 Y117.299 E1.85884
G1 X77.258 Y116.838 E1.86938
G1 X77.036 Y116.301 E1.87992
G1 X76.954 Y115.681 E1.89128
G1 X76.954 Y114.170 E1.91870
G1 X77.036 Y113.550 E1.93006
G1 X77.258 Y113.013 E1.94061
G1 X77.612 Y112.552 E1.95115
G1 X78.073 Y112.199 E1.96169
G1 X78.609 Y111.976 E1.97223
G1 X79.231 Y111.895 E1.98362
G1 X86.193 Y111.881 E2.10999
G1 X86.193 Y117.895 E2.21914
G1 X86.652 Y118.426 F7800.000
G1 X84.552 Y118.436 E2.25726 F1200.000
G1 X79.200 Y118.415 E2.35440
G1 X78.489 Y118.321 E2.36741
G1 X77.841 Y118.053 E2.38015
G1 X77.285 Y117.626 E2.39288
G1 X76.858 Y117.069 E2.40562
G1 X76.589 Y116.421 E2.41835
G1 X76.496 Y115.711 E2.43136
G1 X76.496 Y114.140 E2.45987
G1 X76.589 Y113.430 E2.47287
G1 X76.858 Y112.782 E2.48561
G1 X77.285 Y112.225 E2.49834
G1 X77.841 Y111.798 E2.51108
G1 X78.489 Y111.529 E2.52381
G1 X79.200 Y111.436 E2.53683
G1 X84.552 Y111.415 E2.63396
G1 X86.652 Y111.424 E2.67209
G1 X86.652 Y118.351 E2.79782
G1 X86.218 Y118.178 F7800.000
G1 F1800.000 E1.09782
G92 E0
G1 X85.840 Y112.192 F7800.000
G1 E1.70000 F1800.000
G1 X85.880 Y112.232 E1.70148 F3600.000
G1 X85.880 Y113.221 E1.72723
G1 X84.846 Y112.188 E1.76529
G1 X83.858 Y112.189 E1.79100
G1 X85.880 Y114.211 E1.86543
G1 X85.880 Y115.200 E1.89118
G1 X82.873 Y112.193 E2.00189
G1 X81.888 Y112.197 E2.02754
G1 X85.880 Y116.189 E2.17451
G1 X85.880 Y117.178 E2.20026
G1 X80.902 Y112.201 E2.38351
G1 X79.917 Y112.204 E2.40916
G1 X85.368 Y117.655 E2.60983
G1 X84.377 Y117.653 E2.63563
G1 X78.968 Y112.245 E2.83474
G1 X78.216 Y112.482 E2.85526
G1 X83.386 Y117.652 E3.04555
G1 X82.394 Y117.650 E3.07135
G1 X77.698 Y112.953 E3.24424
G1 X77.354 Y113.599 E3.26327
G1 X81.403 Y117.648 E3.41233
G1 X80.412 Y117.646 E3.43813
G1 X77.267 Y114.501 E3.55391
G1 X77.267 Y115.490 E3.57966
G1 X79.421 Y117.644 E3.65896
G1 X77.958 Y117.170 E3.69901
G1 X77.741 Y116.953 E3.70698
G1 F1800.000 E2.00698
G92 E0
G1 X103.777 Y117.970 F7800.000
G1 E1.70000 F1800.000
G1 X103.777 Y111.881 E1.81052 F1200.000
G1 X110.739 Y111.895 E1.93688
G1 X111.361 Y111.976 E1.94827
G1 X111.897 Y112.199 E1.95881
G1 X112.358 Y112.552 E1.96935
G1 X112.712 Y113.013 E1.97990
G1 X112.934 Y113.550 E1.99044
G1 X113.016 Y114.170 E2.00180
G1 X113.016 Y115.681 E2.02922
G1 X112.934 Y116.301 E2.04058
G1 X112.712 Y116.838 E2.05112
G1 X112.358 Y117.299 E2.06167
G1 X111.897 Y117.652 E2.07221
G1 X111.361 Y117.874 E2.08275
G1 X110.739 Y117.956 E2.09414
G1 X103.852 Y117.970 E2.21914
G1 X103.319 Y118.426 F7800.000
G1 X103.319 Y111.424 E2.34624 F1200.000
G1 X105.419 Y111.415 E2.38436
G1 X110.770 Y111.436 E2.48150
G1 X111.481 Y111.529 E2.49451
G1 X112.129 Y111.798 E2.50725
G1 X112.685 Y112.225 E2.51998
G1 X113.113 Y112.782 E2.53272
G1 X113.381 Y113.430 E2.54545
G1 X113.475 Y114.140 E2.55846
G1 X113.475 Y115.711 E2.58697
G1 X113.381 Y116.421 E2.59997
G1 X113.113 Y117.069 E2.61271
G1 X112.685 Y117.626 E2.62544
G1 X112.129 Y118.053 E2.63818
G1 X111.481 Y118.321 E2.65091
G1 X110.770 Y118.415 E2.66392
G1 X105.419 Y118.436 E2.76106
G1 X103.394 Y118.427 E2.79782
G1 X103.569 Y117.994 F7800.000
G1 X104.090 Y117.618 F7800.000
G1 X104.130 Y117.659 E2.79930 F3600.000
G1 X105.124 Y117.663 E2.82517
G1 X104.090 Y116.629 E2.86323
G1 X104.090 Y115.640 E2.88898
G1 X106.112 Y117.662 E2.96341
G1 X107.097 Y117.658 E2.98906
G1 X104.090 Y114.651 E3.09976
G1 X104.090 Y113.662 E3.12551
G1 X108.083 Y117.654 E3.27249
G1 X109.068 Y117.650 E3.29814
G1 X104.090 Y112.672 E3.48139
G1 X104.597 Y112.190 E3.49960
G1 X110.053 Y117.646 E3.70047
G1 X111.002 Y117.606 E3.72519
G1 X105.583 Y112.187 E3.92470
G1 X106.576 Y112.191 E3.95055
G1 X111.754 Y117.368 E4.14115
G1 X112.272 Y116.897 E4.15938
G1 X107.569 Y112.195 E4.33250
G1 X108.562 Y112.199 E4.35836
G1 X112.616 Y116.252 E4.50758
G1 X112.703 Y115.350 E4.53117
G1 X109.556 Y112.203 E4.64704
G1 X110.549 Y112.206 E4.67290
G1 X112.703 Y114.361 E4.75220
G1 X112.229 Y112.898 E4.79224
G1 X112.013 Y112.681 E4.80021
G1 F1800.000 E3.10021
G92 E0
G1 X100.956 Y90.555 F7800.000
G1 E1.70000 F1800.000
G1 X100.156 Y92.152 E1.73534 F1800.000
G1 X99.838 Y90.555 E1.76756
G1 X98.590 Y93.044 E1.82264
G1 X97.222 Y93.541 E1.85142
G1 X99.610 Y88.776 E1.95684
G1 X99.610 Y86.544 E2.00099
G1 X95.990 Y93.767 E2.16080
G1 X94.847 Y93.817 E2.18344
G1 X99.610 Y84.313 E2.39373
G1 X99.610 Y82.081 E2.43787
G1 X93.773 Y93.728 E2.69556
G1 X92.756 Y93.525 E2.71607
G1 X100.425 Y78.223 E3.05462
G1 X99.601 Y77.636 E3.07464
G1 X96.258 Y84.305 E3.22219
G1 X95.456 Y83.674 E3.24238
G1 X98.717 Y77.168 E3.38634
G1 X97.789 Y76.789 E3.40618
G1 X94.262 Y83.825 E3.56188
G1 X93.557 Y85.232 F7800.000
G1 X90.031 Y92.267 E3.71752 F1800.000
G1 X90.887 Y92.790 E3.73737
G1 X94.160 Y86.259 E3.88185
G1 X95.141 Y86.535 E3.90199
G1 X91.796 Y93.208 E4.04964
G1 X89.230 Y91.633 F7800.000
G1 X89.770 Y90.555 E4.07350 F1800.000
G1 X88.652 Y90.555 E4.09563
G1 X88.429 Y90.999 E4.10547
G1 F1800.000 E2.40547
G92 E0
G1 X90.419 Y89.260 F7800.000
G1 E1.70000 F1800.000
G1 X96.803 Y76.524 E1.98179 F1800.000
G1 X95.762 Y76.368 E2.00260
G1 X90.419 Y87.028 E2.23846
G1 X90.419 Y84.796 E2.28260
G1 X94.656 Y76.344 E2.46961
G1 X93.470 Y76.478 E2.49322
G1 X90.419 Y82.564 E2.62788
G1 X90.419 Y80.333 E2.67202
G1 X92.187 Y76.806 E2.75005
G1 X90.751 Y77.440 E2.78111
G1 X89.671 Y79.595 E2.82879
G1 X88.552 Y79.595 E2.85091
G1 X89.003 Y78.696 E2.87080
G1 X100.856 Y79.595 F7800.000
G1 X101.235 Y78.838 E2.88753 F1800.000
G1 F1800.000 E1.18753
G92 E0
G1 X101.206 Y108.689 F7800.000
G1 E1.70000 F1800.000
G1 X100.827 Y109.445 E1.71673 F1800.000
G1 F1800.000 E0.01673
G92 E0
G1 X94.232 Y113.676 F7800.000
G1 E1.70000 F1800.000
G1 X97.759 Y106.639 E1.85569 F1800.000
G1 X98.687 Y107.018 E1.87553
G1 X95.426 Y113.525 E2.01949
G1 X96.229 Y114.156 E2.03968
G1 X99.571 Y107.487 E2.18724
G1 X100.395 Y108.074 E2.20725
G1 X92.726 Y123.375 E2.54580
G1 X93.743 Y123.578 E2.56631
G1 X99.581 Y111.932 E2.82400
G1 X99.581 Y114.163 E2.86815
G1 X94.817 Y123.668 E3.07844
G1 X95.960 Y123.618 E3.10108
G1 X99.581 Y116.395 E3.26089
G1 X99.581 Y118.627 E3.30504
G1 X97.192 Y123.392 E3.41046
G1 X98.560 Y122.895 E3.43923
G1 X99.808 Y120.405 E3.49432
G1 X100.126 Y122.003 E3.52653
G1 X100.926 Y120.405 E3.56188
G1 F1800.000 E1.86188
G92 E0
G1 X93.527 Y115.083 F7800.000
G1 E1.70000 F1800.000
G1 X90.001 Y122.117 E1.85564 F1800.000
G1 X90.857 Y122.641 E1.87549
G1 X94.130 Y116.110 E2.01997
G1 X95.111 Y116.386 E2.04012
G1 X91.766 Y123.059 E2.18776
G1 X89.200 Y121.484 F7800.000
G1 X89.741 Y120.405 E2.21163 F1800.000
G1 X88.622 Y120.405 E2.23375
G1 X88.399 Y120.850 E2.24359
G1 F1800.000 E0.54359
G92 E0
G1 X90.390 Y119.111 F7800.000
G1 E1.70000 F1800.000
G1 X96.773 Y106.375 E1.98179 F1800.000
G1 X95.732 Y106.219 E2.00260
G1 X90.390 Y116.879 E2.23846
G1 X90.390 Y114.647 E2.28260
G1 X94.626 Y106.195 E2.46961
G1 X93.440 Y106.329 E2.49322
G1 X90.390 Y112.415 E2.62788
G1 X90.390 Y110.183 E2.67202
G1 X92.157 Y106.657 E2.75005
G1 X90.721 Y107.291 E2.78111
G1 X89.641 Y109.445 E2.82879
G1 X88.522 Y109.445 E2.85091
G1 X88.973 Y108.546 E2.87080
M106 S235
G1 F1800.000 E1.17080
G92 E0
G1 Z0.597 F7800.000
G1 X78.522 Y81.688 F7800.000
G1 E1.70000 F1800.000
G1 X79.265 Y81.590 E1.71483 F2400.000
G1 X86.672 Y81.583 E1.86133
G1 X86.672 Y88.566 E1.99946
G1 X79.265 Y88.559 E2.14596
G1 X78.522 Y88.461 E2.16079
G1 X77.876 Y88.194 E2.17462
G1 X77.322 Y87.768 E2.18844
G1 X76.896 Y87.213 E2.20227
G1 X76.629 Y86.568 E2.21610
G1 X76.531 Y85.825 E2.23090
G1 X76.531 Y84.324 E2.26061
G1 X76.629 Y83.582 E2.27541
G1 X76.896 Y82.936 E2.28924
G1 X77.322 Y82.381 E2.30307
G1 X77.876 Y81.956 E2.31689
G1 X78.453 Y81.717 E2.32924
G1 X78.391 Y81.201 F7800.000
M106 S255
G1 X79.232 Y81.090 E2.35130 F2400.000
G1 X87.172 Y81.084 E2.55798
G1 X87.172 Y89.065 E2.76573
G1 X79.232 Y89.059 E2.97242
G1 X78.391 Y88.948 E2.99448
G1 X77.624 Y88.630 E3.01610
G1 X76.965 Y88.125 E3.03772
G1 X76.459 Y87.466 E3.05935
G1 X76.141 Y86.698 E3.08097
G1 X76.031 Y85.858 E3.10302
G1 X76.031 Y84.291 E3.14382
G1 X76.141 Y83.451 E3.16587
G1 X76.459 Y82.684 E3.18749
G1 X76.965 Y82.025 E3.20912
G1 X77.624 Y81.519 E3.23074
G1 X78.322 Y81.230 E3.25041
M106 S235
G1 X78.729 Y81.570 F7800.000
G1 X77.714 Y82.557 F7800.000
G1 X77.497 Y82.773 E3.25839 F7200.000
G1 X76.915 Y84.300 F7800.000
G1 X79.240 Y81.975 E3.34399 F7200.000
G1 X80.195 Y81.966 E3.36882
G1 X76.909 Y85.251 E3.48978
G1 X76.955 Y86.150 E3.51321
G1 X81.142 Y81.963 E3.66735
G1 X82.090 Y81.960 E3.69202
G1 X77.168 Y86.882 E3.87321
